src/asset/site/banner_bg.svg

<svg width="1491" height="891" fill="none" xmlns="http://www.w3.org/2000/svg"><mask id="a" maskUnits="userSpaceOnUse" x="0" y="-104" width="1491" height="995"><path fill-rule="evenodd" clip-rule="evenodd" d="M1-60s-9.814 237 201.374 361.5C413.563 426 437.825 490.848 525 695.51c42.18 99.029 216.339 215.404 430.852 191.37 383.788-43 493.568-397.224 443.148-677.38-50.42-280.156 91.5-313 91.5-313L1-60z" fill="#fff"/></mask><g mask="url(#a)"><path fill="url(#paint0_linear)" d="M-23.001 0h1588v945h-1588z"/><path fill-rule="evenodd" clip-rule="evenodd" d="M874 859c281.11 0 509-227.887 509-509s-227.89-509-509-509c-281.113 0-509 227.887-509 509s227.887 509 509 509z" fill="url(#paint1_linear)"/><path fill-rule="evenodd" clip-rule="evenodd" d="M996.5 936c100.24 0 181.5-81.26 181.5-181.5S1096.74 573 996.5 573 815 654.26 815 754.5 896.26 936 996.5 936z" fill="url(#paint2_linear)"/></g><defs><linearGradient id="paint0_linear" x1="-653.026" y1="440.391" x2="25.04" y2="1650.58" gradientUnits="userSpaceOnUse"><stop stop-color="#FFC85D"/><stop offset="1" stop-color="#FF9E64"/></linearGradient><linearGradient id="paint1_linear" x1="365" y1="-159" x2="365" y2="859" gradientUnits="userSpaceOnUse"><stop stop-color="#FFA561"/><stop offset="1" stop-color="#FFC75D" stop-opacity=".01"/></linearGradient><linearGradient id="paint2_linear" x1="1178" y1="936" x2="1178" y2="573" gradientUnits="userSpaceOnUse"><stop stop-color="#FFC65D" stop-opacity=".395"/><stop offset="1" stop-color="#FFAE61" stop-opacity=".01"/></linearGradient></defs></svg>

<svg width="1491" height="891" viewBox="0 0 1491 891" fill="none" xmlns="http://www.w3.org/2000/svg">
<mask id="mask0" mask-type="alpha" maskUnits="userSpaceOnUse" x="0" y="-104" width="1491" height="995">
<path fill-rule="evenodd" clip-rule="evenodd" d="M0.999681 -60C0.999681 -60 -8.81441 177 202.374 301.5C413.563 426 437.825 490.848 525 695.51C567.18 794.539 741.339 910.914 955.852 886.88C1339.64 843.88 1449.42 489.656 1399 209.5C1348.58 -70.6559 1490.5 -103.5 1490.5 -103.5L0.999681 -60Z" fill="white"/>
</mask>
<g mask="url(#mask0)">
<rect x="-23.001" width="1588" height="945" fill="url(#paint0_linear)"/>
<path fill-rule="evenodd" clip-rule="evenodd" d="M874 859C1155.11 859 1383 631.113 1383 350C1383 68.8871 1155.11 -159 874 -159C592.887 -159 365 68.8871 365 350C365 631.113 592.887 859 874 859Z" fill="url(#paint1_linear)"/>
<path fill-rule="evenodd" clip-rule="evenodd" d="M996.5 936C1096.74 936 1178 854.74 1178 754.5C1178 654.26 1096.74 573 996.5 573C896.26 573 815 654.26 815 754.5C815 854.74 896.26 936 996.5 936Z" fill="url(#paint2_linear)"/>
</g>
<defs>
<linearGradient id="paint0_linear" x1="-653.026" y1="440.391" x2="25.0401" y2="1650.58" gradientUnits="userSpaceOnUse">
<stop stop-color="#FFC85D"/>
<stop offset="1" stop-color="#FF9E64"/>
</linearGradient>
<linearGradient id="paint1_linear" x1="365" y1="-159" x2="365" y2="859" gradientUnits="userSpaceOnUse">
<stop stop-color="#FFA561"/>
<stop offset="1" stop-color="#FFC75D" stop-opacity="0.01"/>
</linearGradient>
<linearGradient id="paint2_linear" x1="1178" y1="936" x2="1178" y2="573" gradientUnits="userSpaceOnUse">
<stop stop-color="#FFC65D" stop-opacity="0.39546"/>
<stop offset="1" stop-color="#FFAE61" stop-opacity="0.01"/>
</linearGradient>
</defs>
</svg>
